!!!!SEGMENT: pl-kc--40102-iii-1-saf--001-051_zielenski-mikolaj--offertoria-totius-anni-anima-mea-dominum.krn
!!!cenid: 16xx:1530
!!!COM: Zieleński, Mikołaj
!!!COM-rismID: pe30013481
!!!CDT: <1611->1611
!!!CNT: Polish
!!!GTL: Offertoria totius anni
!!!OTL: Anima mea Dominum
!!!OMV: 051
!!!PDT: 1611
!!!AGN:
!!!SMS-siglum: PL-Kc
!!!SMS-shelfmark: 40102 III/1 Saf.
!!!SMS-shelfwork: 001-051 G
!!!SMS-variant:
!!!SMS-altvar:
!!!NIFC-rismSourceID: 990069886
!!!NIFC-islandoraID:
!!!URL-pdf-islandora:
!!!URL-scan: https://cyfrowe.mnk.pl/dlibra/publication/24235/edition/23926/content?ref=desc @EN{Scan on The National Museum in Krakow Website} @PL{Skany w portalu Biblioteka Cyfrowa Muzeum Narodowego w Krakowie}
!!!ONB-nifc: UWAGA: str. 42-44. Uwaga: W xml metrum 2/1 do źródłowego C| i odpowiednio 3/1 do 3/2
!!!AIN: 6 organ
!!!key:
**kern	**kern	**kern	**text	**kern	**kern	**kern
*part6	*part5	*part4	*part4	*part3	*part2	*part1
*staff6	*staff5	*staff4	*staff4	*staff3	*staff2	*staff1
*I"	*I"	*I"	*I"	*I"	*I"	*I"Organo
*I'	*I'	*I'	*I'	*I'	*I'	*I'org
*Iorgan	*Iorgan	*Iorgan	*Iorgan	*Iorgan	*Iorgan	*Iorgan
*ICklav	*ICklav	*ICklav	*ICklav	*I'org	*I'org	*I'org
*clefF5	*clefC3	*clefF4	*	*clefC1	*clefC4	*clefG2
*k[]	*k[]	*k[]	*	*k[]	*k[]	*k[]
*d:	*d:	*d:	*	*d:	*d:	*d:
=1	=1	=1	=1	=1	=1	=1
!	!	!LO:TX:b:t=Magnificat.	!	!	!	!
1%8ryy	1%8ryy	0G	.	1%8ryy	1%8ryy	1%8ryy
.	.	0A	.	.	.	.
.	.	0A	.	.	.	.
.	.	0A	.	.	.	.
=2-	=2-	=2-	=2-	=2-	=2-	=2-
*M2/1	*M2/1	*M2/1	*	*M2/1	*M2/1	*M2/1
*met(C)	*met(C)	*met(C)	*met(C)	*met(C)	*met(C)	*met(C)
!	!LO:TX:b:t=Tertius Chorus.	!	!	!LO:TX:b:t=Secundus Chorus.	!	!LO:TX:b:t=Anima mea Dominum. Primus Chorus A 12.
00r	00r	0r	.	0r	2d\	2dd\
.	.	.	.	.	4d\	4dd\
.	.	.	.	.	4d\	4dd\
.	.	.	.	.	2c\	2ee\
.	.	.	.	.	2A/	2ff\
=3-	=3-	=3-	=3-	=3-	=3-	=3-
.	.	1r	.	1r	2.B-X\	2.dd\
.	.	.	.	.	4B-\	4dd\
.	.	2AA/	.	2cc#X\	4A/	4cc#X\
.	.	.	.	.	4A/	4ee\
.	.	4AA/	.	4cc#\	4A/	4ee\
.	.	4AA/	.	4cc#\	4A/	4ee\
=4	=4	=4	=4	=4	=4	=4
0r	0r	2D/	.	4dd\	2A/	2dd\
.	.	.	.	4a\	.	.
.	.	2D/	.	2.dd\	2A/	2ff\
.	.	2.AA/	.	.	2.A/	2.ee\
.	.	.	.	8cc#Xi\	.	.
.	.	.	.	8b\	.	.
.	.	.	.	2cc#\	.	.
.	.	4AA/	.	.	4A/	4ee\
=5-	=5-	=5-	=5-	=5-	=5-	=5-
1DD	1d	1D	.	1dd	1A	1ff#X
2GG/	2d\	1r	.	1r	1r	1r
2CC/	2e\	.	.	.	.	.
=6	=6	=6	=6	=6	=6	=6
1FF	1f	00r	.	2a\	00r	00r
.	.	.	.	2b\	.	.
!	!	!	!	!LO:TX:t=P:problem=niepełny takt (?)	!	!
2DD/	2e\	.	.	2ryy	.	.
2.GG/	2.d\	.	.	2.cc\	.	.
=7-	=7-	=7-	=7-	=7-	=7-	=7-
.	.	.	.	.	.	.
4GG/	4d\	.	.	2cc\	.	.
2DD/	2d\	.	.	.	.	.
.	.	.	.	4a\	.	.
1BB-X	1d	.	.	4.b-Xi\	.	.
.	.	.	.	8b-\	.	.
.	.	.	.	2g/	.	.
=8	=8	=8	=8	=8	=8	=8
1AA	1c#X	2r	.	00r	00r	00r
.	.	2A\	.	.	.	.
1r	1r	2G\	.	.	.	.
.	.	2.F\	.	.	.	.
=9-	=9-	=9-	=9-	=9-	=9-	=9-
0r	0r	.	.	.	.	.
.	.	2C/	.	.	.	.
.	.	4D/	.	.	.	.
.	.	4.GG/	.	.	.	.
.	.	8GG/	.	.	.	.
.	.	2BB-X/	.	.	.	.
=10	=10	=10	=10	=10	=10	=10
1r	1r	2AA/	.	2a\	2r	2r
.	.	2AA/	.	2a\	4r	4r
.	.	.	.	.	4A/	4ee\
2r	2r	1r	.	1r	2d\	2ff\
4r	4r	.	.	.	2A/	2ee\
4AA/	4e\	.	.	.	.	.
=11-	=11-	=11-	=11-	=11-	=11-	=11-
2DD/	2d\	2r	.	2r	1r	1r
4AA/	4c#X/	4r	.	4r	.	.
4AA/	4e\	4AA/	.	4cc\	.	.
2EE/	2e\	2E\	.	2b\	2r	2r
4AA/	4c#X/	4E\	.	4a\	4r	4r
4AA/	4e\	4AA/	.	4a\	4A/	4ee\
=12	=12	=12	=12	=12	=12	=12
2FF/	4A/	2AA/	.	2ff\	2A/	2aa\
.	4a\	.	.	.	.	.
4CC/	4e\	4E\	.	4ee\	4c\	4gg\
2GG/	2g\	4r	.	2dd\	4G/	2gg\
.	.	2r	.	.	4G/	.
4GG/	4g\	.	.	4dd\	2D/	4dd\
4DD/	1a\	2.AA/	.	2dd\	.	2ff\
4DD/	.	.	.	.	4A/	.
=13-	=13-	=13-	=13-	=13-	=13-	=13-
2.AA/	.	.	.	2a\	2A/	2ee\
.	.	4BB/	.	.	.	.
.	2.A/	2C/	.	2ee\	2E/	2.aa\
4GG/	.	.	.	.	.	.
1FF	.	1C	.	4a\	4F/	.
.	4B/	.	.	4a\	4G/	4gg\
.	2c/	.	.	[<2ff\	4A/	[<2ff\
.	.	.	.	.	4B\	.
*custos:CC	*custos:c	*custos:C	*custos:	*custos:ff	*custos:c	*custos:ff
!!linebreak:original
=14	=14	=14	=14	=14	=14	=14
!	!	!	!	!LO:TX:t=P:problem=brak zakończenia łuku	!	!
1CC	0c	1C	.	2ff\]	2c\	2ff\]
.	.	.	.	1cc	2G/	2ee\
1FF	.	2.C/	.	.	2.C/	2ff\
.	.	.	.	2ff\	.	2aa\
.	.	4C/	.	.	4C/	.
=15-	=15-	=15-	=15-	=15-	=15-	=15-
0r	0r	2C/	.	2ee\	2G/	2gg\
.	.	4G\	.	4dd\	4G/	4gg\
.	.	2D/	.	2dd\	2A/	2ff\
.	.	4D/	.	4dd\	4D/	4ff\
.	.	4AA/	.	4cc\	4E/	4ee\
.	.	4AA/	.	4cc\	4E/	4ee\
=16	=16	=16	=16	=16	=16	=16
0r	0r	1E	.	4b\	1E	1ee
.	.	.	.	4cc\	.	.
.	.	.	.	2b\	.	.
.	.	1AA	.	1cc#X	1E	1ee
=17-	=17-	=17-	=17-	=17-	=17-	=17-
1AA	1c	0r	.	0r	0r	0r
2FF/	2c/	.	.	.	.	.
2CC/	2c/	.	.	.	.	.
=18	=18	=18	=18	=18	=18	=18
1GG	1B-X	00r	.	00r	00r	00r
2DD/	2A/	.	.	.	.	.
2.D\	2.A/	.	.	.	.	.
=19-	=19-	=19-	=19-	=19-	=19-	=19-
.	.	.	.	.	.	.
4D\	4A/	.	.	.	.	.
2D\	2A/	.	.	.	.	.
2D\	2d\	.	.	.	.	.
2AA/	2c/	.	.	.	.	.
=20	=20	=20	=20	=20	=20	=20
2.BB-X/	2.B-X/	00r	.	00r	00r	00r
4BB-/	4B-/	.	.	.	.	.
1GG	1B-	.	.	.	.	.
=21-	=21-	=21-	=21-	=21-	=21-	=21-
*	*lig	*	*	*	*	*
2.AA/	1A	.	.	.	.	.
8FF/	.	.	.	.	.	.
8EE/	.	.	.	.	.	.
2C\	1G	.	.	.	.	.
2CC/	.	.	.	.	.	.
*	*Xlig	*	*	*	*	*
=22	=22	=22	=22	=22	=22	=22
1FF	1A	2r	.	2r	00r	00r
.	.	2.F\	.	2.a\	.	.
1r	1r	.	.	.	.	.
.	.	4D/	.	4a\	.	.
.	.	2E\	.	2g#X/	.	.
=23-	=23-	=23-	=23-	=23-	=23-	=23-
0r	0r	2AA/	.	2a\	.	.
.	.	2D/	.	2f#X/	.	.
.	.	4BB/	.	4g#y/	.	.
.	.	2C/	.	2e/	.	.
.	.	4C/	.	4e/	.	.
=24	=24	=24	=24	=24	=24	=24
0r	0r	4AA/	.	4a\	00r	00r
.	.	4FF/	.	4a\	.	.
.	.	2C/	.	2g/	.	.
.	.	4FF/	.	4a\	.	.
.	.	2F\	.	2a\	.	.
.	.	4D/	.	4dd\	.	.
=25-	=25-	=25-	=25-	=25-	=25-	=25-
1r	1r	4E\	.	4b\	.	.
.	.	4C/	.	4cc\	.	.
.	.	4D/	.	4a\	.	.
.	.	4AA/	.	4cc\	.	.
2r	2r	2E\	.	2b\	.	.
4r	[y2e\	4AA/	.	4a\	.	.
!LO:TX:t=P:problem=brak początku łuku	!	!	!	!	!	!
[4AA/	.	[4AA/	.	[<4cc\	.	.
*custos:A	*custos:f	*custos:A	*custos:	*custos:cc	*custos:A	*custos:aa
!!linebreak:original
=26	=26	=26	=26	=26	=26	=26
!	!LO:N:xstem:cue	!	!	!LO:TX:t=P:problem=brak zakończenia łuku	!	!
4AA/]	4e\]	4AA/]	.	4cc\]	0r	0r
4FF/	4f\	4AA/	.	4cc\	.	.
4C\	4e\	4C/	.	4cc\	.	.
4GG/	4d\	4G\	.	4b\	.	.
4D\	4d\	4D/	.	4a\	.	.
4DD/	4d\	4D/	.	4a\	.	.
2DD/	2a\	2D/	.	2dd\	.	.
=27-	=27-	=27-	=27-	=27-	=27-	=27-
1AA	1a	1E	.	1cc#X	1r	1r
2r	2r	2r	.	2r	2r	2r
[2FF/	2A/	[2AA/	.	[<2ff\	[2A/	[<2aa\
=28	=28	=28	=28	=28	=28	=28
2FF/]	4A/	2AA/]	.	2ff\]	2A/]	2aa\]
.	4B/	.	.	.	.	.
2FF/	4c/	2AA/	.	2ff\	2A/	2ff\
.	4d\	.	.	.	.	.
2CC/	4e\	2C/	.	2ee\	2E/	2gg\
.	4f\	.	.	.	.	.
2CC/	4g\	2G\	.	2.ee\	2E/	2ee\
.	2c/	.	.	.	.	.
=29-	=29-	=29-	=29-	=29-	=29-	=29-
2FF/	.	2C/	.	.	2A/	1ff
.	4A/	.	.	4dd\	.	.
2DD/	2.a\	2D/	.	2.dd\	2A/	.
1AA	.	1E	.	.	1A	2ee\
.	4g\	.	.	8cc#X\	.	.
.	.	.	.	8b\	.	.
.	2e\	.	.	2cc#\	.	2aa\
=30	=30	=30	=30	=30	=30	=30
1DD	1f#X	1D	.	1dd	1A	1aa
2r	2r	2r	.	2r	2r	2r
1FF/	2A/	1AA/	.	1ff\	1A\	1aa\
=31-	=31-	=31-	=31-	=31-	=31-	=31-
.	4A/	.	.	.	.	.
.	4B/	.	.	.	.	.
2FF/	4c/	2AA/	.	2ff\	2A/	2ff\
.	4d\	.	.	.	.	.
2CC/	4e\	2C/	.	2ee\	2E/	2gg\
.	4fny\	.	.	.	.	.
2CC/	4g\	2G\	.	[y2ee\	2E/	2ee\
.	[>4c/	.	.	.	.	.
=32	=32	=32	=32	=32	=32	=32
!	!	!	!	!LO:N:xstem:cue	!	!
2FF/	4c/]	2C/	.	4ee\]	2A/	1ff
.	4A/	.	.	4dd\	.	.
2DD/	2.a\	2D/	.	2.dd\	2A/	.
1AA	.	1E	.	.	1A	2ee\
.	4g\	.	.	8cc#X\	.	.
.	.	.	.	8b\	.	.
.	2e\	.	.	2cc#\	.	2aa\
=33-	=33-	=33-	=33-	=33-	=33-	=33-
1DD	1f#X	1D	.	1dd	2.A/	2aa\
.	.	.	.	.	.	2dd\
.	.	.	.	.	4d\	.
1r	1r	1r	.	1r	2c#X\	2ee\
.	.	.	.	.	2d\	2ff#X\
=34	=34	=34	=34	=34	=34	=34
00r	00r	00r	.	00r	4G/	4gg\
.	.	.	.	.	2c\	2ee\
.	.	.	.	.	4A/	4ff\
.	.	.	.	.	2d\	2dd\
.	.	.	.	.	4A/	4cc#X\
.	.	.	.	.	4A/	4ee\
=35-	=35-	=35-	=35-	=35-	=35-	=35-
.	.	.	.	.	4.E/	4.ee\
.	.	.	.	.	8E/	8ee\
.	.	.	.	.	4A/	4ee\
.	.	.	.	.	4A/	4ee\
.	.	.	.	.	2D/	2ff\
.	.	.	.	.	4G/	4dd\
.	.	.	.	.	[4C/	[<4ee\
*custos:F	*custos:c	*custos:A	*custos:	*custos:cc	*custos:C	*custos:ee
!!pagebreak:original
=36	=36	=36	=36	=36	=36	=36
00r	00r	1r	.	1r	4C/]	4ee\]
.	.	.	.	.	4C/	4ee\
.	.	.	.	.	2D/	2dd\
.	.	2r	.	2r	2A/	2cc#X\
.	.	2AA/	.	2cc#X\	2A/	2ee\
=37-	=37-	=37-	=37-	=37-	=37-	=37-
.	.	2D/	.	2dd\	2A/	2ff#X\
.	.	4GG/	.	4b\	4G/	4gg\
.	.	2C/	.	2ccny\	2G/	2ee\
.	.	4AA/	.	4cc\	4A/	4ee\
.	.	2E\	.	2b\	2B\	2ee\
=38	=38	=38	=38	=38	=38	=38
1r	1r	1AA	.	1cc#X	1A	1ee
1.FF	1.c	1.F	.	1r	1.F	1r
=39-	=39-	=39-	=39-	=39-	=39-	=39-
.	.	.	.	1.a	.	1.ff
2FF/	2c/	2F\	.	.	2F/	.
[1FF	1c	2F\	.	.	1F	.
.	.	2F\	.	2a\	.	2ff\
=40	=40	=40	=40	=40	=40	=40
2FF/]	2r	2F\	.	1.cc	2r	2ff\
2FF/	2c/	2C/	.	.	2A/	2ff\
2CC/	2c/	1C	.	.	2E/	2ee\
2C\	2c/	.	.	2cc\	2C/	2ee\
=41-	=41-	=41-	=41-	=41-	=41-	=41-
*	*	*	*	*lig	*	*
1GG	1g	1r	.	1b-X	2D/	1.dd
.	.	.	.	.	4D/	.
.	.	.	.	.	4E/	.
*	*	*	*	*col	*	*
[1DD	1r	[1AA	.	2.a\	4F/	.
.	.	.	.	.	4G/	.
.	.	.	.	.	2A/	[y2ff\
*	*	*	*	*Xlig	*	*
.	.	.	.	4a\	.	.
*	*	*	*	*Xcol	*	*
=42	=42	=42	=42	=42	=42	=42
!	!	!	!	!	!LO:TX:t=P:problem=poprawka wysokości	!LO:N:xstem:cue
1DD]	1f	1AA]	.	2dd\	0A	4ff\]
.	.	.	.	.	.	4ee\
.	.	.	.	2a\	.	2dd\
2AA/	2e\	2AA/	.	2a\	.	1cc#X
1AA/	2e\	2AA/	.	1ee\	.	.
=43-	=43-	=43-	=43-	=43-	=43-	=43-
.	2c/	2E\	.	.	0r	0r
2AA/	4B/	1E	.	2cc\	.	.
.	4A/	.	.	.	.	.
2EE/	2B/	.	.	2b\	.	.
2EE/	2B/	2E\	.	2b\	.	.
=44	=44	=44	=44	=44	=44	=44
1AA	1c#X	2E\	.	2a\	00r	00r
.	.	1A	.	1ee	.	.
1r	0r	.	.	.	.	.
.	.	2F#X\	.	2a\	.	.
=45-	=45-	=45-	=45-	=45-	=45-	=45-
1r	.	2G\	.	2b\	.	.
.	.	2E\	.	2cc#X\	.	.
2r	2r	1D	.	[<1dd	.	.
2D\	[<2d\	.	.	.	.	.
=46	=46	=46	=46	=46	=46	=46
2D\	2d\]	00r	.	1dd]	0r	0r
2BB/	2d\	.	.	.	.	.
2C\	2c/	.	.	1r	.	.
2AA/	2c/	.	.	.	.	.
=47-	=47-	=47-	=47-	=47-	=47-	=47-
1GG	1B	.	.	0r	2r	2r
.	.	.	.	.	4G/	4dd\
.	.	.	.	.	4G/	4dd\
1r	1r	.	.	.	4B\	4dd\
.	.	.	.	.	4c\	4ee\
.	.	.	.	.	2A/	2cc\
=48	=48	=48	=48	=48	=48	=48
2r	2r	0r	.	0r	1G	1b
4GG/	4d\	.	.	.	.	.
4GG/	4d\	.	.	.	.	.
4C\	4e\	.	.	.	1r	1r
4AA/	4e\	.	.	.	.	.
2EE/	2e\	.	.	.	.	.
=49-	=49-	=49-	=49-	=49-	=49-	=49-
1AA	1e	2r	.	2r	2r	2r
.	.	4A\	.	4a\	4A/	4ee\
.	.	4A\	.	4a\	4A/	4ee\
1r	1r	4F\	.	4a\	4A/	4ff\
.	.	4D/	.	4dd\	4A/	4ff\
.	.	2AA/	.	2cc#X\	2A/	2ee\
=50	=50	=50	=50	=50	=50	=50
00r	00r	1D	.	2dd\	2A/	2dd\
.	.	.	.	2dd\	2A/	2dd\
.	.	1D	.	2.dd\	2.d\	2.ff\
.	.	.	.	4dd\	4d\	4ff\
=51-	=51-	=51-	=51-	=51-	=51-	=51-
.	.	2BB-X/	.	2dd\	2d\	2ff\
.	.	2FF/	.	2ff\	2A/	2ff\
.	.	2.C/	.	1cc	4E/	2ee\
.	.	.	.	.	4D/	.
.	.	.	.	.	4E/	[y2gg\
.	.	4C/	.	.	4F/	.
=52	=52	=52	=52	=52	=52	=52
!	!	!	!	!	!	!LO:N:xstem:cue
00r	00r	2GG/	.	2.b-X\	4G/	4gg\]
.	.	.	.	.	4A/	8ff\
.	.	.	.	.	.	8ee\
.	.	2GG/	.	.	4B-X\	4dd\
.	.	.	.	4b-\	4G/	4ee\
.	.	2D/	.	2a\	2A/	2ff\
.	.	2D/	.	2dd\	2D/	2ff\
=53-	=53-	=53-	=53-	=53-	=53-	=53-
.	.	2AA/	.	2cc#X\	2E/	2ee\
.	.	2D/	.	2dd\	2D/	2ff#X\
.	.	1GG	.	1dd	2.D/	2.gg\
.	.	.	.	.	4G/	4dd\
=54	=54	=54	=54	=54	=54	=54
1r	1r	0r	.	0r	2c\	2ee\
.	.	.	.	.	4G/	4dd\
.	.	.	.	.	4G/	4b/
2r	2r	.	.	.	2C/	2cc\
4r	4r	.	.	.	2G/	2b/
4GG/	4d\	.	.	.	.	.
=55-	=55-	=55-	=55-	=55-	=55-	=55-
2C\	2e\	1r	.	1r	0r	0r
4GG/	4d\	.	.	.	.	.
4GG/	4d\	.	.	.	.	.
2DD/	2d\	2r	.	2r	.	.
2GG/	2d\	4r	.	4r	.	.
.	.	4G\	.	4cc\	.	.
=56	=56	=56	=56	=56	=56	=56
0r	0r	2C/	.	2cc\	2r	2r
.	.	2GG/	.	2b\	4r	4r
.	.	.	.	.	4G/	4dd\
.	.	2r	.	2r	2c\	2ee\
.	.	4r	.	4r	4G/	4dd\
.	.	4GG/	.	4dd\	4G/	4gg\
=57-	=57-	=57-	=57-	=57-	=57-	=57-
2r	2r	2D/	.	2dd\	2A/	2ff\
4r	4r	4AA/	.	4cc\	4A/	4ee\
4AA/	4e\	4AA/	.	4cc\	4A/	4ee\
2FF/	2A/	2AA/	.	2ff\	2A/	2aa\
4FF/	2c/	4FF/	.	4ff\	4A/	4aa\
4CC/	.	4GG/	.	4ee\	4c\	4gg\
=58	=58	=58	=58	=58	=58	=58
2GG/	4r	2GG/	.	2dd\	2d\	2gg\
.	4d\	.	.	.	.	.
4GG/	2d\	4GG/	.	4dd\	4d\	4gg\
2DD/	.	2C/	.	2dd\	2d\	2ff\
.	4d\	.	.	.	.	.
4DD/	4A/	4AA/	.	4dd\	4A/	4ff\
2DD/	2A/	2D/	.	2dd\	2A/	2ff\
=59-	=59-	=59-	=59-	=59-	=59-	=59-
2.AA/	1A	1C	.	1a	2A/	2ee\
.	.	.	.	.	2E/	2.aa\
4GG/	.	.	.	.	.	.
1FF	[<1c	[1C	.	2ff\	4F/	.
.	.	.	.	.	4G/	4gg\
.	.	.	.	2cc\	4A/	[y2ff\
.	.	.	.	.	4B\	.
*custos:CC	*custos:c	*custos:C	*custos:	*custos:cc	*custos:c	*custos:ee
!!linebreak:original
=60	=60	=60	=60	=60	=60	=60
!	!	!	!	!	!	!LO:N:xstem:cue
1CC	1c]	1C]	.	1cc	2c\	4ff\]
.	.	.	.	.	.	8ee\
.	.	.	.	.	.	8dd\
.	.	.	.	.	2G/	2ee\
1FF	1c	1C	.	1cc	2A/	2ff\
.	.	.	.	.	2.F/	2.ff\
=61-	=61-	=61-	=61-	=61-	=61-	=61-
0r	0r	0r	.	0r	.	.
.	.	.	.	.	4C/	4ee\
.	.	.	.	.	2D/	2dd\
.	.	.	.	.	4A/	4cc#X\
.	.	.	.	.	4B-X\	4dd\
.	.	.	.	.	2A/	2cc#\
=62	=62	=62	=62	=62	=62	=62
00r	00r	1r	.	1r	4A/	4cc#y\
.	.	.	.	.	4F/	4dd\
.	.	.	.	.	2E/	2ee\
!	!	!	!	!	!	!LO:TX:t=P:problem=poprawka wysokości
.	.	2r	.	2r	1D	1b
.	.	2.D/	.	2.a\	.	.
=63-	=63-	=63-	=63-	=63-	=63-	=63-
.	.	.	.	.	0r	0r
.	.	4AA/	.	4a\	.	.
.	.	2BB-X/	.	2f/	.	.
.	.	4BB-/	.	4f/	.	.
.	.	4FF/	.	4a\	.	.
.	.	2C/	.	2g/	.	.
=64	=64	=64	=64	=64	=64	=64
00r	00r	4C/	.	4g/	00r	00r
.	.	4AA/	.	4cc\	.	.
.	.	2GG/	.	2b-X\	.	.
.	.	4FF/	.	4a\	.	.
.	.	4F\	.	4a\	.	.
.	.	4F\	.	4a\	.	.
.	.	4F\	.	4a\	.	.
=65-	=65-	=65-	=65-	=65-	=65-	=65-
.	.	2C/	.	2g/	.	.
.	.	2AA/	.	2cc\	.	.
.	.	2.D/	.	4b-X\	.	.
.	.	.	.	4a\	.	.
.	.	.	.	[<2dd\	.	.
.	.	4C/	.	.	.	.
=66	=66	=66	=66	=66	=66	=66
00r	00r	2BB-X/	.	2dd\]	1r	1r
.	.	2BB-/	.	2dd\	.	.
.	.	0AA	.	0cc#X	1A	2r
.	.	.	.	.	.	2ee\
=67-	=67-	=67-	=67-	=67-	=67-	=67-
.	.	.	.	.	2A/	2ee\
.	.	.	.	.	2A/	2ee\
.	.	1r	.	1r	4D/	1ff
.	.	.	.	.	4E/	.
.	.	.	.	.	4F/	.
.	.	.	.	.	4D/	.
=68	=68	=68	=68	=68	=68	=68
00r	00r	00r	.	00r	1G	2dd\
.	.	.	.	.	.	2.gg\
.	.	.	.	.	2.E/	.
.	.	.	.	.	.	4gg\
.	.	.	.	.	.	2gg\
.	.	.	.	.	4E/	.
=69-	=69-	=69-	=69-	=69-	=69-	=69-
.	.	.	.	.	2F/	4ff\
.	.	.	.	.	.	4ee\
.	.	.	.	.	2A/	2.ee\
.	.	.	.	.	1D	.
.	.	.	.	.	.	8dd\
.	.	.	.	.	.	8cc\
.	.	.	.	.	.	2dd\
=70	=70	=70	=70	=70	=70	=70
2r	2r	00r	.	00r	1A	1ee
2AA/	2a\	.	.	.	.	.
2C#X\	2a\	.	.	.	1r	1r
2D\	2f\	.	.	.	.	.
=71-	=71-	=71-	=71-	=71-	=71-	=71-
1AA	1e	.	.	.	2r	2r
.	.	.	.	.	2A/	2ee\
1r	1r	.	.	.	2c#X\	2ee\
.	.	.	.	.	2d\	2dd\
=72	=72	=72	=72	=72	=72	=72
00r	00r	0r	.	0r	4A/	4cc#X\
.	.	.	.	.	2A/	2ee\
.	.	.	.	.	4F#X/	4b/
.	.	.	.	.	4G/	4b/
!	!	!	!	!	!LO:SIC:v:s=4D#/	!
.	.	.	.	.	4D/	4dd#X\
.	.	.	.	.	2A/	2cc#\
=73-	=73-	=73-	=73-	=73-	=73-	=73-
.	.	2r	.	2r	1D	1ddny
.	.	2.D/	.	2.a\	.	.
.	.	.	.	.	1r	1r
.	.	4D/	.	4a\	.	.
.	.	2AA/	.	2cc\	.	.
=74	=74	=74	=74	=74	=74	=74
00r	00r	2BB-X/	.	2b-X\	00r	00r
.	.	2FF/	.	2a\	.	.
!	!	!	!	!LO:TX:t=P:problem=2g/ dopisana ręcznie	!	!
.	.	2C/	.	2g/	.	.
.	.	2.C/	.	2.g/	.	.
=75-	=75-	=75-	=75-	=75-	=75-	=75-
.	.	.	.	.	.	.
.	.	4C/	.	4g/	.	.
.	.	2AA/	.	2a\	.	.
.	.	4GG/	.	1b-X	.	.
.	.	4AA/	.	.	.	.
.	.	4BB-X/	.	.	.	.
.	.	4GG/	.	.	.	.
=76	=76	=76	=76	=76	=76	=76
2r	2r	2D/	.	2a\	00r	00r
1AA	1e	1AA	.	1cc	.	.
2AA/	2e\	2AA/	.	2cc\	.	.
=77-	=77-	=77-	=77-	=77-	=77-	=77-
1EE	1e	1E	.	1b	.	.
2AA/	2e\	2AA/	.	2a\	.	.
2AA/	2e\	2AA/	.	2cc\	.	.
=78	=78	=78	=78	=78	=78	=78
2.FF/	2.f\	4AA/	.	2.cc\	00r	00r
.	.	4BB/	.	.	.	.
.	.	4C/	.	.	.	.
4FF/	4f\	4D/	.	4cc\	.	.
2CC/	2e\	2E\	.	2cc\	.	.
2CC/	2e\	2C/	.	2cc\	.	.
=79-	=79-	=79-	=79-	=79-	=79-	=79-
*lig	*	*	*	*	*	*
!LO:TX:t=P:problem=poprawka wysokości	!	!	!	!	!	!
1GG	2d\	2.D/	.	2b\	.	.
.	2d\	.	.	2.dd\	.	.
.	.	4D/	.	.	.	.
1DD	2.a\	1D	.	.	.	.
.	.	.	.	8cc\	.	.
.	.	.	.	8b\	.	.
.	.	.	.	4a\	.	.
.	4a\	.	.	4b\	.	.
*Xlig	*	*	*	*	*	*
=80	=80	=80	=80	=80	=80	=80
1AA	2a\	1AA	.	4cc\	0r	0r
.	.	.	.	4dd\	.	.
.	2A/	.	.	2.ee\	.	.
0EE	2B/	1E	.	.	.	.
.	.	.	.	4dd\	.	.
.	2.e\	.	.	2cc\	.	.
=81-	=81-	=81-	=81-	=81-	=81-	=81-
*	*	*	*	*lig	*	*
.	.	0r	.	1b	1r	1r
.	4d\	.	.	.	.	.
.	2B/	.	.	.	.	.
!	!	!	!	!	!LO:TX:t=P:problem=korekta wartości	!LO:TX:t=P:problem=korekta wartości
1AA	1e	.	.	1a	2E/	2ee\
.	.	.	.	.	2A/	2a/
*	*	*	*	*Xlig	*	*
*custos:D	*custos:a	*custos:G	*custos:	*custos:dd	*custos:A	*custos:a
!!linebreak:original
=82	=82	=82	=82	=82	=82	=82
1r	1r	00r	.	00r	4F/	4a/
.	.	.	.	.	2G/	2b/
.	.	.	.	.	4E/	4cc#X\
2r	2r	.	.	.	1D	1dd
2D\	2a\	.	.	.	.	.
=83-	=83-	=83-	=83-	=83-	=83-	=83-
2BB/	2d\	.	.	.	0r	0r
4BB/	4d\	.	.	.	.	.
2C\	2e\	.	.	.	.	.
4AA/	4f#X\	.	.	.	.	.
2GG/	2g\	.	.	.	.	.
=84	=84	=84	=84	=84	=84	=84
00r	00r	2G\	.	2dd\	00r	00r
.	.	2C/	.	2ee\	.	.
.	.	4BB/	.	4dd\	.	.
.	.	2C/	.	2cc\	.	.
.	.	4D/	.	4a\	.	.
=85-	=85-	=85-	=85-	=85-	=85-	=85-
.	.	4GG/	.	4b\	.	.
.	.	4G\	.	4dd\	.	.
.	.	4D/	.	4dd\	.	.
.	.	4AA/	.	4cc\	.	.
.	.	1E	.	4b\	.	.
.	.	.	.	2a\	.	.
.	.	.	.	4g#X/	.	.
=86	=86	=86	=86	=86	=86	=86
0r	0r	1AA	.	2a\	0r	0r
.	.	.	.	2.cc\	.	.
.	.	2.F\	.	.	.	.
.	.	.	.	4cc\	.	.
.	.	.	.	1cc\	.	.
.	.	4F\	.	.	.	.
=87-	=87-	=87-	=87-	=87-	=87-	=87-
2.FF/	2.f\	1F	.	.	2r	2r
.	.	.	.	2r	2.F/	2.ff\
4FF/	4f\	.	.	.	.	.
1FF	1f	2.FF/	.	2r	.	.
.	.	.	.	.	4F/	4ff\
.	.	.	.	[y2cc\	2F/	2ff\
.	.	4FF/	.	.	.	.
=88	=88	=88	=88	=88	=88	=88
!	!	!	!	!LO:N:xstem:cue	!	!
2.CC/	2.e\	1FF	.	4cc\]	2.c\	2r
.	.	.	.	4cc\	.	.
.	.	.	.	2cc\	.	2.gg\
4CC/	4e\	.	.	.	4c\	.
1GG	2d\	1r	.	1r	1G	.
.	.	.	.	.	.	4gg\
.	2d\	.	.	.	.	2gg\
=89-	=89-	=89-	=89-	=89-	=89-	=89-
2.DD/	4d\	0r	.	0r	2.A/	2.ff\
.	4e\	.	.	.	.	.
.	4f\	.	.	.	.	.
4DD/	4d\	.	.	.	4A/	4ff\
2AA/	2e\	.	.	.	1A	1ee
2AA/	2e\	.	.	.	.	.
=90	=90	=90	=90	=90	=90	=90
2.FF/	2.f\	00r	.	00r	0r	0r
4FF/	4f\	.	.	.	.	.
2C\	2e\	.	.	.	.	.
2D\	2d\	.	.	.	.	.
=91-	=91-	=91-	=91-	=91-	=91-	=91-
1AA	1c#X	.	.	.	2r	2r
.	.	.	.	.	2A/	2ee\
1r	1r	.	.	.	2.F/	2.ff\
.	.	.	.	.	4F/	4ff\
=92	=92	=92	=92	=92	=92	=92
00r	00r	1r	.	1r	2c\	2ee\
.	.	.	.	.	2d\	2dd\
.	.	2r	.	2r	1A	1cc#X
.	.	2A\	.	2a\	.	.
=93-	=93-	=93-	=93-	=93-	=93-	=93-
.	.	2.G\	.	2.b\	0r	0r
.	.	4G\	.	4b\	.	.
.	.	2G\	.	2b\	.	.
.	.	2E\	.	2cc#X\	.	.
=94	=94	=94	=94	=94	=94	=94
2r	2r	1D	.	1dd	2r	2r
2DD/	2d\	.	.	.	2A/	2ff\
2.AA/	2.e\	1r	.	1r	2.A/	2.ee\
4AA/	4e\	.	.	.	4A/	4ee\
=95-	=95-	=95-	=95-	=95-	=95-	=95-
1EE	1e	0r	.	0r	2B\	2ee\
.	.	.	.	.	2B\	2ee\
1AA	1c	.	.	.	1A	2ee\
.	.	.	.	.	.	2a/
=96	=96	=96	=96	=96	=96	=96
2GG/	2g\	00r	.	00r	1d	2b/
2DD/	2f\	.	.	.	.	2.dd\
2.AA/	2.a\	.	.	.	2.A/	.
.	.	.	.	.	.	8cc#X\
.	.	.	.	.	.	8b\
.	.	.	.	.	.	2cc#\
4AA/	4a\	.	.	.	4A/	.
=97-	=97-	=97-	=97-	=97-	=97-	=97-
1DD	1a	.	.	.	1d	1dd
1r	1r	.	.	.	1r	1r
=98	=98	=98	=98	=98	=98	=98
!	!	!	!	!LO:N:vis=1	!	!
1.DD	1.d	1.D	.	1.ff	1.A	1.aa
2DD/	2d\	2D/	.	2ff\	2A/	2aa\
=99-	=99-	=99-	=99-	=99-	=99-	=99-
1DD	1f	4D/	.	1ff	1A	1aa
.	.	4E\	.	.	.	.
.	.	4F\	.	.	.	.
.	.	4G\	.	.	.	.
1FF	1f	2A\	.	1ff	1A	1aa
.	.	2F\	.	.	.	.
=100	=100	=100	=100	=100	=100	=100
2FF/	2f\	2F\	.	1.cc	1.c	2aa\
2FF/	2c/	2C/	.	.	.	2ff\
1.CC	1.c	1.C	.	.	.	1.gg
.	.	.	.	2cc\	2G/	.
=101-	=101-	=101-	=101-	=101-	=101-	=101-
.	.	.	.	2.cc\	2.G/	.
2CC/	2c/	2C/	.	.	.	2gg\
.	.	.	.	4cc\	4G/	.
[y1FF	2A/	1C	.	2cc\	2C/	2ff\
.	4F/	.	.	2ff\	2C/	2aa\
.	4G/	.	.	.	.	.
=102	=102	=102	=102	=102	=102	=102
!LO:N:vis=4:xstem:cue	!	!	!	!	!	!
2FF/]	4A/	1.AA	.	1.ff	2.C/	1.aa
.	4B/	.	.	.	.	.
2FF/	2c/	.	.	.	.	.
.	.	.	.	.	4C/	.
2.FF/	2.A/	.	.	.	2F/	.
.	.	2C/	.	2cc\	2A/	2ff\
4FF/	4A/	.	.	.	.	.
=103-	=103-	=103-	=103-	=103-	=103-	=103-
2CC/	1c	4C/	.	1cc	2c\	1.gg
.	.	4D/	.	.	.	.
!LO:TX:b:t=Partitura Nicolai Zielenski.	!	!	!	!	!	!
2C\	.	4E\	.	.	4G/	.
.	.	4F\	.	.	4A/	.
1GG	2r	4G\	.	1b-X	4B-X\	.
.	.	4GG/	.	.	4G/	.
.	2d\	2D/	.	.	2e\	[<2dd\
=104	=104	=104	=104	=104	=104	=104
0DD	4d\	2.F\	.	0a	1d	2dd\]
.	4e\	.	.	.	.	.
.	4f\	.	.	.	.	2.ff\
.	4g\	4E\	.	.	.	.
.	1a	2D/	.	.	1A	.
.	.	.	.	.	.	4ee\
.	.	2AA/	.	.	.	2dd\
=105-	=105-	=105-	=105-	=105-	=105-	=105-
1AA	1a	2AA/	.	2a\	1A	1cc#X
.	.	2A\	.	2a\	.	.
1r	1r	2D/	.	2a\	1r	1r
.	.	[y2G\	.	[y2d/	.	.
=106	=106	=106	=106	=106	=106	=106
!	!	!LO:N:xstem:cue	!	!LO:N:xstem:cue	!	!
00r	00r	4G\]	.	4d/]	0r	0r
.	.	4G\	.	4d/	.	.
.	.	2G\	.	2g/	.	.
.	.	1E	.	1g	.	.
!LO:TX:b:t=F	!	!	!	!	!	!
=107-	=107-	=107-	=107-	=107-	=107-	=107-
.	.	1D	.	1.f#X	2r	2r
.	.	.	.	.	2d\	2dd\
.	.	2r	.	.	2c\	2ee\
.	.	2A\	.	2a\	2A/	2ff#X\
*custos:A	*custos:A	*custos:G	*custos:	*custos:b	*custos:d	*custos:gg
!!pagebreak:original
=108	=108	=108	=108	=108	=108	=108
0r	0r	2G\	.	2b\	2d\	1gg
.	.	2E\	.	2cc#X\	2r	.
.	.	1D	.	1dd	2r	2r
.	.	.	.	.	2d\	2dd\
=109-	=109-	=109-	=109-	=109-	=109-	=109-
1r	1r	0r	.	0r	2A/	2cc\
.	.	.	.	.	2e\	2b/
2r	2r	.	.	.	1A	1a
2AA/	2A/	.	.	.	.	.
=110	=110	=110	=110	=110	=110	=110
2GG/	2B/	0r	.	00r	00r	00r
2EE/	2c/	.	.	.	.	.
4DD/	4d\	.	.	.	.	.
2AA/	2c/	.	.	.	.	.
4FF/	4A/	.	.	.	.	.
=111-	=111-	=111-	=111-	=111-	=111-	=111-
2CC/	2G/	0r	.	.	.	.
2CC/	2G/	.	.	.	.	.
2.FF/	2A/	.	.	.	.	.
.	2c/	.	.	.	.	.
4F\	.	.	.	.	.	.
=112	=112	=112	=112	=112	=112	=112
2F\	2c/	0r	.	0r	00r	00r
2D\	1d	.	.	.	.	.
*lig	*	*	*	*	*	*
1E	.	.	.	.	.	.
.	2c/	.	.	.	.	.
=113-	=113-	=113-	=113-	=113-	=113-	=113-
1EE	1B	1r	.	1r	.	.
*Xlig	*	*	*	*	*	*
1AA	1A	2r	.	2r	.	.
.	.	[<2F\	.	[<2a\	.	.
=114	=114	=114	=114	=114	=114	=114
0r	0r	2F\]	.	2a\]	0r	0r
.	.	2AA/	.	2g/	.	.
.	.	2BB/	.	2f#X/	.	.
.	.	2G\	.	2g/	.	.
=115-	=115-	=115-	=115-	=115-	=115-	=115-
1r	1r	1A	.	1e	2r	2r
.	.	.	.	.	4A/	4ee\
.	.	.	.	.	4A/	4ee\
2r	2r	1r	.	1r	2d\	2ff\
4AA/	4e\	.	.	.	2A/	2ee\
4AA/	4e\	.	.	.	.	.
=116	=116	=116	=116	=116	=116	=116
2DD/	2f\	2r	.	2r	1r	1r
2AA/	2e\	4AA/	.	4cc\	.	.
.	.	4AA/	.	4cc\	.	.
1r	1r	2E\	.	2b\	2r	2r
.	.	2AA/	.	2a\	4A/	4ee\
.	.	.	.	.	4A/	4ee\
=117-	=117-	=117-	=117-	=117-	=117-	=117-
2r	2r	0r	.	0r	4d\	4ff\
.	.	.	.	.	4d\	4ff\
4AA/	4a\	.	.	.	2A/	2ee\
4AA/	4a\	.	.	.	.	.
4D\	4f\	.	.	.	2D/	2dd\
4DD/	4f\	.	.	.	.	.
2AA/	2e\	.	.	.	4A/	4ee\
.	.	.	.	.	4A/	4ee\
=118	=118	=118	=118	=118	=118	=118
1DD	1d	00r	.	00r	2d\	2.ff\
.	.	.	.	.	2D/	.
.	.	.	.	.	.	2dd\
1r	1r	.	.	.	2.G/	.
.	.	.	.	.	.	4g/
.	.	.	.	.	.	1gg\
.	.	.	.	.	4F/	.
=119-	=119-	=119-	=119-	=119-	=119-	=119-
0r	0r	.	.	.	2E/	.
.	.	.	.	.	4D/	4ff\
.	.	.	.	.	4C/	4ee\
.	.	.	.	.	1G	4dd\
.	.	.	.	.	.	4ee\
.	.	.	.	.	.	2dd\
*custos:C	*custos:e	*custos:E	*custos:	*custos:G	*custos:C	*custos:ee
!!linebreak:original
=120	=120	=120	=120	=120	=120	=120
00r	00r	00r	.	00r	2C/	2ee\
.	.	.	.	.	1c	1ee
.	.	.	.	.	2G/	2dd\
=121-	=121-	=121-	=121-	=121-	=121-	=121-
.	.	.	.	.	2A/	2cc#X\
.	.	.	.	.	2d\	2dd\
.	.	.	.	.	2e\	2b/
.	.	.	.	.	4A/	4cc#\
.	.	.	.	.	4A/	4cc#\
=122	=122	=122	=122	=122	=122	=122
0r	0r	00r	.	00r	2G/	2dd\
.	.	.	.	.	2E/	2ee\
*	*	*	*	*	*lig	*
.	.	.	.	.	1F	4dd\
.	.	.	.	.	.	4cc\
.	.	.	.	.	.	2.cc\
=123-	=123-	=123-	=123-	=123-	=123-	=123-
1r	1r	.	.	.	1G	.
.	.	.	.	.	.	8b/
.	.	.	.	.	.	8a/
.	.	.	.	.	.	2b/
*	*	*	*	*	*Xlig	*
2r	2r	.	.	.	1C	1cc
[<2C\	[<2e\	.	.	.	.	.
=124	=124	=124	=124	=124	=124	=124
2C\]	2e\]	0r	.	0r	00r	00r
2GG/	2d\	.	.	.	.	.
2AA/	2c#X/	.	.	.	.	.
2D\	2d\	.	.	.	.	.
=125-	=125-	=125-	=125-	=125-	=125-	=125-
1E	1B	2r	.	2r	.	.
.	.	4E\	.	4g#X/	.	.
.	.	4E\	.	4g#/	.	.
1r	1r	2D/	.	2a\	.	.
.	.	2BB/	.	[y2b\	.	.
=126	=126	=126	=126	=126	=126	=126
!	!	!	!	!LO:N:xstem:cue	!	!
0r	0r	2.C/	.	4b\]	0r	0r
.	.	.	.	4a\	.	.
.	.	.	.	2.a\	.	.
.	.	8BB/	.	.	.	.
.	.	8AA/	.	.	.	.
.	.	1E	.	.	.	.
.	.	.	.	8g#X/	.	.
!	!	!	!	!LO:SIC:v:s=8f#/	!	!
.	.	.	.	8f/	.	.
.	.	.	.	2g#/	.	.
=127-	=127-	=127-	=127-	=127-	=127-	=127-
1r	1r	1AA	.	1a	2r	2r
.	.	.	.	.	4A/	4ee\
.	.	.	.	.	4A/	4ee\
2r	2r	1r	.	1r	2d\	2ff\
4AA/	4e\	.	.	.	2A/	2ee\
4AA/	4e\	.	.	.	.	.
=128	=128	=128	=128	=128	=128	=128
2DD/	2f\	2r	.	2r	1r	1r
2AA/	2e\	4AA/	.	4cc\	.	.
.	.	4AA/	.	4cc\	.	.
1r	1r	2E\	.	2cc\	2r	2r
.	.	2AA/	.	2a\	4A/	4ee\
.	.	.	.	.	4A/	4ee\
=129-	=129-	=129-	=129-	=129-	=129-	=129-
2r	2r	0r	.	0r	4d\	4ff\
.	.	.	.	.	4d\	4ff\
4AA/	4a\	.	.	.	2A/	2dd\
4AA/	4a\	.	.	.	.	.
4D\	4f\	.	.	.	2D/	2dd\
4DD/	4f\	.	.	.	.	.
2AA/	2e\	.	.	.	4A/	4ee\
.	.	.	.	.	4A/	4ee\
=130	=130	=130	=130	=130	=130	=130
2DD/	2d\	0r	.	0r	4d\	4ff\
.	.	.	.	.	4d\	4ff\
4AA/	4a\	.	.	.	2A/	2ee\
4AA/	4a\	.	.	.	.	.
4D\	4f\	.	.	.	2D/	2dd\
4DD/	4f\	.	.	.	.	.
2AA/	2e\	.	.	.	4A/	4ee\
.	.	.	.	.	4A/	4ee\
=131-	=131-	=131-	=131-	=131-	=131-	=131-
1DD	1d	1r	.	1r	2d\	2ff\
.	.	.	.	.	2d\	1cc
1r	1r	[y1GG	.	(<1dd	4d\	.
.	.	.	.	.	4c\	.
.	.	.	.	.	4B\	[<2gg\
.	.	.	.	.	4A\	.
*custos:CC	*custos:g	*custos:GG	*custos:	*custos:ee	*custos:G	*custos:gg
!!linebreak:original
=132	=132	=132	=132	=132	=132	=132
!	!	!LO:N:vis=4:xstem:cue	!	!	!	!
0CC	1.g	2GG/]	.	1.ee)	0G	2gg\]
.	.	2GG/	.	.	.	2gg\
.	.	2GG/	.	.	.	4gg\
.	.	.	.	.	.	4ff\
.	2g\	2C/	.	2ee\	.	4ee\
.	.	.	.	.	.	4dd\
=133-	=133-	=133-	=133-	=133-	=133-	=133-
1CC	4g\	1C	.	4ee\	2c\	2cc\
.	4f\	.	.	4dd\	.	.
.	4e\	.	.	4cc\	1c	2ee\
.	4d\	.	.	4b\	.	.
1FF	4c/	2C/	.	2a\	.	2ff\
.	4B/	.	.	.	.	.
.	[2A/	2FF/	.	2cc\	2C/	[<2aa\
=134	=134	=134	=134	=134	=134	=134
0.DD	2A/]	2AA/	.	2.dd\	2.F/	2aa\]
.	2A/	1AA	.	.	.	4ff\
.	.	.	.	4ee\	4G/	4ee\
*	*	*	*	*	*lig	*
.	2A/	.	.	2ff\	1A	2dd\
.	2F/	2AA/	.	2dd\	.	2.ff\
=135-	=135-	=135-	=135-	=135-	=135-	=135-
.	[y0A	[y0AA	.	0a	1F	.
.	.	.	.	.	.	4ee\
.	.	.	.	.	.	1dd
*	*	*	*	*	*Xlig	*
1AA	.	.	.	.	2E/	.
.	.	.	.	.	2A/	2cc#X\
=136	=136	=136	=136	=136	=136	=136
!	!LO:N:vis=4:xstem:cue	!LO:N:vis=4:xstem:cue	!	!	!	!
1DD	1A]	1AA]	.	2a\	1A	2dd\
.	.	.	.	1dd	.	4dd\
.	.	.	.	.	.	4ee\
1.DD	2A/	2AA/	.	.	2.d\	4ff\
.	.	.	.	.	.	4gg\
.	1a\	1F\	.	2dd\	.	1aa\
.	.	.	.	.	8c\	.
.	.	.	.	.	8B\	.
=137-	=137-	=137-	=137-	=137-	=137-	=137-
.	.	.	.	2.dd\	2A/	.
2DD/	2f\	2D/	.	.	2A/	2dd\
.	.	.	.	4cc\	.	.
2.GG/	[y1d	[y1D	.	4b-X\	[y1G	2dd\
.	.	.	.	4a\	.	.
.	.	.	.	[2g/	.	2dd\
4AA/	.	.	.	.	.	.
=138	=138	=138	=138	=138	=138	=138
!	!LO:N:vis=4:xstem:cue	!LO:N:vis=4:xstem:cue	!	!	!LO:N:vis=4:xstem:cue	!
4BB-X/	2d\]	2D/]	.	2g/]	2G/]	2.dd\
4GG/	.	.	.	.	.	.
2D\	2d\	2D/	.	2f#X/	2D/	.
.	.	.	.	.	.	4cc\
*	*lig	*	*	*	*	*
1GG	1d	2.D/	.	2g/	0.D	4b-X/
.	.	.	.	.	.	4a/
.	.	.	.	2.dd\	.	2g/
.	.	4C/	.	.	.	.
=139-	=139-	=139-	=139-	=139-	=139-	=139-
0GG	1.g	4BB-X/	.	.	.	0dd
.	.	4AA/	.	4cc\	.	.
.	.	2GG/	.	2.b-X\	.	.
.	.	1D	.	.	.	.
.	.	.	.	4a\	.	.
*	*Xlig	*	*	*	*	*
.	2G/	.	.	4b-X\	.	.
.	.	.	.	4g/	.	.
=140-	=140-	=140-	=140-	=140-	=140-	=140-
0DDl	1d	0Dl	.	1a	0Dl	0ddl
.	1dl	.	.	1al	.	.
==	==	==	==	==	==	==
*-	*-	*-	*-	*-	*-	*-
!!!system-decoration: [(s1,s2,s3,s4,s5,s6)]
!!!RDF**kern: l = terminal long
!!!RDF**kern: i = editorial accidental
!!!RDF**kern: > = above
!!!RDF**kern: < = below
!!!ENC: Katarzyna Serwa
!!!END: 2021-12-27
!!!ENC: Mateusz Solarz
!!!END: 2021-12-27
!!!YEC: Copyright 2022 Narodowy Instytut Fryderyka Chopina (https://polishscores.org)
!!!YEM: Licence CC BY 4.0 (https://creativecommons.org/licenses/by/4.0)
